X: 171
T:The Coming of Spring
M:6/8
L:1/8
C:Paddy O'Brien
S:His book
Z:Rachel Marsh
K:D
A | BEE B2 A | BdB BAG | FEF DFA | dfe dBA |
BEE B2 A | Bef gfe | dBG FGA | BGE E2 :||
F | GEF G2 A | B2 A Bec | dAA BAG | (3FGA F DEF |
G2 E FGA | Bef gfe | dBG FGA | BGE E2:||
f | g2 e ege | Beg bag | f2 d dcd | AFA def |1 g2 e ege |
Beg bag | fed (3fga f | gee e2:||2 g2 e fed | Bec dfe |
dBG FGA | BGE E2||
<end>
<start>
